X:1
T:Marble Arch, 87.87 D
T:Marble Arch, 87.87 D
T:George Crawford Hugg, 1898
T:Public Domain Courtesy of the Cyber Hymnal™
C:George Crawford Hugg, 1898
Z:Public Domain
Z:Courtesy of the Cyber Hymnal™
%%score 1 ( 2 3 )
L:1/8
Q:1/4=98
M:3/4
K:Ab
V:1 treble 
V:2 bass 
V:3 bass 
V:1
 [Ec][CA] [CA]2 [Ec]2 | [DB][DF] [DF]2 [DA]2 | [DG][DF] [DE]2 [Ed]2 | [Ec][EB] [Ec]4 | %4
 [Ec][CA] [CA]2 [Ec]2 | [DB][DF] [DF]2 [DA]2 | [DG][DF] [DE]2 [Ed]2 | [Ec][DB] [CA]4 | %8
 [ce][Ac] [Ac]2 [ce]2 | [ce][Bd] [GB]2 [Bd]2 | [Bd][Ac] [EA]2 [Ac]2 | [Ac][GB] [GB]4 | %12
 [Ec][EA] [EA]2 [Ac]2 | [FB][DF] [DF]2 [DA]2 | [DG][DF] [DE]2 [Gd]2 | [Ac][EB] [EA]4 |] %16
V:2
 [A,,A,][A,,A,] [A,,A,]2 [A,,A,]2 | [D,F,][D,A,] [D,A,]2 [D,F,]2 | [E,B,][E,A,] [E,G,]2 [E,B,]2 | %3
 [E,A,][E,G,] A,4 | [A,,A,][A,,A,] [A,,A,]2 [A,,A,]2 | [D,F,][D,A,] [D,A,]2 [D,F,]2 | %6
 [E,B,][E,A,] [E,G,]2 [E,B,]2 | [E,A,][E,G,] [A,,A,]4 | [A,E][A,E] [A,E]2 [A,E]2 | %9
 [E,E][E,E] [E,E]2 [E,E]2 | [G,E][A,E] [A,C]2 [A,E]2 | [E,E][E,E] [E,E]4 | A,[A,C] [A,C]2 [A,E]2 | %13
 [D,D][D,A,] [D,A,]2 [D,F,]2 | [E,B,][E,A,] [E,G,]2 [E,E]2 | [E,E][E,E] [A,,C]4 |] %16
V:3
 x6 | x6 | x6 | x2 A,4 | x6 | x6 | x6 | x6 | x6 | x6 | x6 | x6 | A, x5 | x6 | x6 | x6 |] %16

